X:72
T:Painters Sett Of Quadrilles No.2. Le4.072, The
B:L.Leadley MS#4 c1850
Z:Village Music Project, 2016 Steve Mansfield
M:2/4
L:1/8
Q:2/4=50
N:* Rest inserted by transcriber
N: ** B/>A/B/>c/ d/>e/f/>g/ in Mss
K:G
D | B2 BB | B/A/B/c/ d2 | (3c/d/c/ (3B/c/B/ Ad | (3c/B/c/ (3A/B/A/ GD |
B2 BB | B/A/B/c/ d2 | (3c/d/c/ (3B/c/B/ Ad | BGG :|
"*" z | A2 (3^GAB | A2 F2 | G2 Bd | Ac/B/ A2 |
A2 ^G/A/c/A/ | A2 F2 | GA Be/d/ | G2 A_B |
B2 BB | B/A/B/c/ d2 | (3c/d/c/ (3B/c/B/ Ad | (3B/c/B/ (3A/B/A/ GD |
B2BB|"*" B/>A/B/>c/ d/>e/f/>g/ | (3c/d/c/ (3B/c/B/ Ad | G3 ||
[K:Bb]
G/A/ | B2 BB | Be/d/ c/B/A/G/ | F2 FG/A/ | cB BF |
B2 BB | G/B/e/d/ c/B/A/G/ | F2 FG/A/ | c2 Bd |
d>c/B// B>d|d>c/B// A>A | c>B/A// GG | ^FG zg |
^fa zG | ^FA zA | dD//E// ^F/G/A/=B/ !D.C.!|]

